X:1
T:Lo ballo dell'intorcia
T:Lo ballo dell'intorcia
T:Antonio Valente
C:Antonio Valente
%%score { ( 1 2 ) | ( 3 4 ) }
L:1/8
Q:1/4=90
M:2/4
K:F
V:1 treble nm="Piano" snm="Pno."
V:2 treble 
V:3 bass 
V:4 bass 
V:1
"^\n""^Prima Mutanza\n" B2 BB | A2 AA | B2 BB | A2 AA | B2 BB | A2 AA | BB AA | G2- GG || %8
"^Seconda Mutanza" G/^F/G/A/ BG | A/G/A/=B/ cA | B/A/G/^F/ GG | ^F/E/F/G/ FF | G/^F/G/A/ BG | %13
 A/G/A/=B/ cA | B/A/G/^F/ GF | GG,/A,/ =B,/C/G ||"^Terza Mutanza" G/^F/G/A/ B/c/d/e/ | %17
 f/g/a/g/ f/e/d/c/ | B/A/G/A/ B/c/d/e/ | ^f/^c/d/e/ f/e/d/=c/ | B/^F/G/A/ B/c/d/e/ | %21
 f/g/a/g/ f/e/d/c/ | B/G/A/B/ A/^F/G/A/ | [=B,DG]G/A/ =B/c/[G_Bd] ||"^Quarta Mutanza" B/A/G/A/ Bb | %25
 a/g/f/g/ ac | B/A/G/A/ Bg | ^f/e/d/e/ fd | B/A/G/A/ Bb | a/g/f/g/ ac' | b/g/a/b/ a/^f/g/a/ | %31
 Tg2 g2 ||"^Quinta Mutanza" dG/A/ B/c/d/e/ | fA/=B/ c/d/e/f/ | gG/A/ B/c/d/e/ | ^fd/e/ f/g/a/f/ | %36
 gB/c/ d/e/f/g/ | af/g/ a/g/f/e/ | d/c/d/e/ ^f/g/e/f/ | g4 ||"^Sesta Mutanza" [GB]b/a/ g/f/e/d/ | %41
 ca/g/ f/e/d/c/ | Bb/a/ g/e/^f/g/ | ^fa/g/ f/e/d/c/ | Bg/f/ e/d/c/B/ | Af/e/ d/c/B/A/ | %46
 G/F/E/G/ ^F/G/E/F/ | G3 G ||"^Settima Mutanza" d2 d2 | c2 c2 | d2 d2 | d2 d2 | d2 d2 | c2 c2 | %54
 d2 d2 | d2 !fermata!d2 |] %56
V:2
 G2 GG | F2 FF | G2 GG | ^F2 FF | G2 GG | F2 FF | GG ^FF | [=B,D]2- [B,D][B,D] || x4 | x4 | x4 | %11
 x4 | x4 | x4 | x4 | [=B,D] x2 [B,D] || x4 | x4 | x4 | x4 | x4 | x4 | x4 | x4 || x4 | x4 | x4 | %27
 x4 | x4 | x4 | x4 | x4 || x4 | x4 | x4 | x4 | x4 | x4 | x4 | [Bd]f/e/ d/c/B/A/ || x4 | x4 | x4 | %43
 x4 | x4 | x4 | x4 | [=B,D]/A,/B,/C/ D/E/[B,D] || [GB]2 [GB]2 | [FA]2 [FA]2 | [GB]2 [GB]2 | %51
 [^FA]2 [FA]2 | [GB]2 [GB]2 | [FA]2 [FA]2 | [GB]2 [^FA]2 | [G=B]2 !fermata![GB]2 |] %56
V:3
 DD/A/ DD | CC/G/ CC | DD/A/ DD | DD/G/ DD | DD/A/ DD | CC/G/ CC | DD DD | G,G,- G,G, || D2 DD | %9
 C2 CC | D2 DD | D2 DD | D2 DD | C2 CC | D2 DD | G,2 G,G, || D2 DD | C2 CC | D2 DD | D2 DD | %20
 D2 DD | C2 CC | D2 D2 | G,2 G,G, || D2 D2 | C2 C2 | D2 D2 | D2 D2 | D2 D2 | C2 C2 | D2 D2 | %31
 G,2 G,2 || D2 D2 | C2 C2 | D2 D2 | D2 D2 | D2 D2 | C2 C2 | D2 D2 | G,2 G,2 || D2 D2 | C2 C2 | %42
 D2 D2 | D2 D2 | D2 D2 | C2 C2 | DC D2 | G,G, G,[G,,D,G,] || G,G,,/A,,/ B,,/C,/D,/E,/ | %49
 F,G,,/G,,/ A,,/=B,,/C,/A,,/ | B,,/A,,/G,,/F,,/ G,,/A,,/B,,/C,/ | D,/E,/^F,/G,/ A,/F,/G,/A,/ | %52
 G,G,,/A,,/ B,,/C,/D,/E,/ | F,F,,/G,,/ A,,/=B,,/C,/A,,/ | %54
 B,,/C,/D,/E,/ ^F,/G,/4F,/4G,/4F,/4E,/4F,/4 | G,2 !fermata!G,2 |] %56
V:4
 [G,B,]2 [G,B,][G,B,] | [F,A,]2 [F,A,][F,A,] | [G,B,]2 [G,B,][G,B,] | [D,A,]2 [D,A,][D,A,] | %4
 [G,B,]2 [G,B,][G,B,] | [F,A,]2 [F,A,][F,A,] | [G,B,][G,B,] [D,A,][D,A,] | %7
 [G,,D,]2 [G,,D,][G,,D,] || [G,B,]2 [G,B,][G,B,] | [F,A,]2 [F,A,][F,A,] | [G,B,]2 [G,B,][G,B,] | %11
 [D,A,]2 [D,A,][D,A,] | [G,B,]2 [G,B,][G,B,] | [F,A,]2 [F,A,][F,A,] | [G,B,]2 [G,B,][D,A,] | %15
 [G,,D,]2 [G,,D,][G,,D,] || [G,B,]2 [G,B,][G,B,] | [F,A,]2 [F,A,][F,A,] | [G,B,]2 [G,B,][G,B,] | %19
 [D,A,]2 [D,A,][D,A,] | [G,B,]2 [G,B,][G,B,] | [F,A,]2 [F,A,][F,A,] | [G,B,]2 [D,A,]2 | %23
 [G,,D,]2 [G,,D,][G,,D,] || [G,B,]2 [G,B,]2 | [F,A,]2 [F,A,]2 | [G,B,]2 [G,B,]2 | [D,A,]2 [D,A,]2 | %28
 [G,B,]2 [G,B,]2 | [F,A,]2 [F,A,]2 | [G,B,]2 [D,A,]2 | [G,,D,]2 [G,,D,]2 || [G,B,]2 [G,B,]2 | %33
 [F,A,]2 [F,A,]2 | [G,B,]2 [G,B,]2 | [D,A,]2 [D,A,]2 | [G,B,]2 [G,B,]2 | [F,A,]2 [F,A,]2 | %38
 [G,B,]2 [D,A,]2 | [G,,D,]2 [G,,D,]2 || [G,B,]2 [G,B,]2 | [F,A,]2 [F,A,]2 | [G,B,]2 [G,B,]2 | %43
 [D,A,]2 [D,A,]2 | [G,B,]2 [G,B,]2 | [F,A,]2 [F,A,]2 | [G,B,][C,G,] [D,A,]2 | %47
 [G,,D,][G,,D,] [G,,D,] z || x4 | x4 | x4 | x4 | x4 | x4 | x4 | [G,,D,]2 !fermata![G,,D,]2 |] %56

